X: 1
T: Gan Ainm
M: 4/4
L: 1/8
R: reel
D: Four Men &amp; a Dog - Barking Mad
K: Dmaj
~D3E FEDE|FDBD AFEF|D2 (3FED BDAF|FE~E2 EDB,D|
A,DDE FEDE|FDBF AFEF|DAFD BDAF|1 EDCE D2 (3A,B,C:|2 EDCE D3g||
|:fddf edce|dFBF AFEg|fddf edce|defd a3g|
fd~d2 edce|dFBF AFEF|DAFD BDAF|1 EDCE D3g:|2 EDCE D2 (3A,B,C||
